X: 2
T: Allistrum's March
R: jig
M: 6/8
L: 1/8
K: Gmaj
|: egg eaa | egg ged | egg eaa | bag e2 d :||: BAA BGG | BAg ged | BAA BGG | BAg e2 d :|


Tune 2136	Setting 2136

